X: 520
P: Longways for as many as will
M: 6/4
L: 1/4
K: C
[|\
e3 g3 | c>Bc dBG | A>BA c2F | E2F G2e |\
f3 e3 | d>cd ecA | B2c c2B | c3- c2 |]
c>dc GA_B | A>GA F>ED | f3 A>Bc | B3- B2G |\
(EG)c AF>E | (FA)d BGd | ec2 c2B | c3- c2 |]

